X: 1
T: the Upper Valley Reel
C: Gianna Marzilli Ericson (March 2017)
R: reel
%S: s:4 b:16(4+4+4+4)
S: https://natunelist.net/upper-valley-reel/
Z: 2022 John Chambers <jc:trillian.mit.edu>
M: C|
L: 1/8
K: D
"^A"|:\
"D"F2FG A2A2 | "D"ABAG FED2 | "D"F2FG A2A2 | "G"BAGB "A"A4 |
"D"F2FG A2A2 | "D"ABAG FED2 | "D"F2FG A2F2 | "A"EDC2 "D"D4 :|
"^B"|:\
"D"FDFA cdd2 | "G"dedc B2Bc | "D"dBAG FEDE | "Bm"FGFD "A"E2DE |
"D"FDFA cdd2 | "G"dedc B2Bc | "D"dBAG FEDD | "A"EGFE "D"D4 :|
